; generated by SuperSlicer 2.5.59.13 on 2025-02-21 at 16:08:28 UTC

; 

; external perimeters extrusion width = 0.56mm
; perimeters extrusion width = 0.56mm
; infill extrusion width = 0.56mm
; solid infill extrusion width = 0.56mm
; top infill extrusion width = 0.56mm
; first layer extrusion width = 0.56mm

; object:{"name":"TRUMPETSTENCIL_tweaked","id":"TRUMPETSTENCIL_tweaked.stl id:0 copy 0","object_center":[100.000000,100.000000,0.000000],"boundingbox_center":[100.000000,100.000000,1.250000],"boundingbox_size":[91.000000,88.000000,2.500000]}
; Total objects to print: 1
M486 T1
; plater:{"center":[100.000000,100.000000,0.000000],"boundingbox_center":[100.000000,100.000000,1.250000],"boundingbox_size":[91.000000,88.000000,2.500000]}

M107
M104 S200 ; set temperature
;TYPE:Custom
G28 ; home all axes
G1 Z5 F5000 ; lift nozzle

M107
G21 ; set units to millimeters
G90 ; use absolute coordinates
M82 ; use absolute distances for extrusion
G92 E0
; Filament gcode
M109 S200 ; set temperature and wait for it to be reached
;LAYER_CHANGE
;Z:0.3
;HEIGHT:0.3
G1 Z0.3 F7800
G1 E-2.000000 F2400
G1 X49.809 Y51.904 F7800
G1 E0.000000 F2400
;TYPE:Skirt
;WIDTH:0.52
M107
G1 F1800
G1 X48.669 Y53.813 E0.12633
G1 X48.272 Y56.000000 E0.25267
G1 X48.272 Y144.000000 E5.25348
G1 X49.017 Y146.954 E5.42658
G1 X50.404 Y148.691 E5.55291
G1 X52.313 Y149.831 E5.67925
G1 X54.5 Y150.228 E5.80558
G1 X145.5 Y150.228 E10.97687
G1 X148.454 Y149.483 E11.14997
G1 X150.191 Y148.096 E11.27631
G1 X151.331 Y146.187 E11.40265
G1 X151.728 Y144.000000 E11.52897
G1 X151.728 Y56.000000 E16.52979
G1 X150.983 Y53.046 E16.70289
G1 X149.596 Y51.309 E16.82922
G1 X147.687 Y50.169 E16.95555
G1 X145.5 Y49.772 E17.08189
G1 X54.5 Y49.772 E22.25318
G1 X51.546 Y50.517 E22.42629
G1 X49.856 Y51.866 E22.5492
M107
G92 E0
G1 E-2.000000 F2400
; printing object TRUMPETSTENCIL_tweaked.stl id:0 copy 0
M486 S0
G1 X106.223 Y81.202 F7800
G1 E0.000000 F2400
;TYPE:Thin wall
;WIDTH:0.125219
M107
G1 F1800
G1 X106.209 Y81.165 E0.00029
M107
;WIDTH:0.39371
M107
G1 X106.174 Y81.07 E0.00446
M107
;WIDTH:0.590139
M107
G1 X106.117 Y80.916 E0.01524
M107
;WIDTH:0.666568
M107
G1 X106.087 Y80.838 E0.02153
M107
;WIDTH:0.742996
M107
G1 X105.97 Y80.595 E0.04436
M107
;WIDTH:0.891589
M107
G1 X105.922 Y80.586 E0.04936
M107
;WIDTH:1.040182
M107
G1 X105.84 Y80.569 E0.05961
M107
;WIDTH:0.931305
M107
G1 X105.725 Y80.538 E0.0725
M107
;WIDTH:0.751007
M107
G1 X105.61 Y80.491 E0.08307
M107
;WIDTH:0.714269
M107
G1 X105.428 Y80.416 E0.09901
M107
;WIDTH:0.376394
M107
G1 X105.299 Y80.363 E0.10446
M107
G92 E0
G1 E-2.000000 F2400
G1 X117.87 Y96.958 F7800
G1 E0.000000 F2400
;WIDTH:0.277267
M107
G1 F1800
G1 X117.795 Y96.84 E0.00337
M107
;WIDTH:0.4
M107
G1 X117.685 Y96.668 E0.01195
M107
;WIDTH:0.526977
M107
G1 X117.629 Y96.596 E0.0172
M107
;WIDTH:0.653954
M107
G1 X116.131 Y95.073 E0.17423
M107
;WIDTH:0.723192
M107
G1 X114.563 Y93.492 E0.35725
M107
;WIDTH:0.689738
M107
G1 X114.492 Y93.433 E0.36447
M107
;WIDTH:0.639902
M107
G1 X114.372 Y93.398 E0.37337
M107
;WIDTH:0.51531
M107
G1 X114.222 Y93.341 E0.38245
M107
;WIDTH:0.4
M107
G1 X114.15 Y93.307 E0.38577
G1 X113.924 Y93.13 E0.39779
G1 X113.778 Y92.958 E0.40725
G1 X113.603 Y92.659 E0.42174
M107
;WIDTH:0.302918
M107
G1 X113.566 Y92.531 E0.42569
M107
G92 E0
G1 E-2.000000 F2400
G1 X92.435 Y100.419 F7800
G1 E0.000000 F2400
;TYPE:Internal perimeter
;WIDTH:0.56
M107
G1 F1800
G1 X92.447 Y100.607 E0.01164
G1 X92.543 Y100.767 E0.02317
G1 X92.332 Y100.986 E0.04197
G1 X91.884 Y100.738 E0.07361
G1 X91.695 Y100.205 E0.10857
G1 X92.377 Y100.402 E0.15248
M107
G92 E0
G1 E-2.000000 F2400
G1 X89.458 Y97.697 F7800
G1 E0.000000 F2400
M107
G1 F1800
G1 X89.247 Y97.921 E0.01906
G1 X88.831 Y97.69 E0.04847
G1 X88.615 Y97.293 E0.07642
G1 X88.839 Y97.083 E0.09539
G1 X89.224 Y97.327 E0.12354
G1 X89.426 Y97.646 E0.14689
M107
G92 E0
G1 E-2.000000 F2400
G1 X87.079 Y99.83 F7800
G1 E0.000000 F2400
M107
G1 F1800
G1 X87.102 Y100.433 E0.03731
G1 X87.693 Y101.252 E0.09975
G1 X90.039 Y103.432 E0.29773
G1 X90.079 Y103.386 E0.3015
G1 X90.731 Y104.291 E0.37047
G1 X93.072 Y106.467 E0.56803
G1 X94.898 Y104.382 E0.73932
G1 X95.084 Y105.597 E0.81534
G1 X95.177 Y105.976 E0.83945
G1 X95.183 Y107.353 E0.92458
G1 X96.657 Y107.926 E1.02233
G1 X97.842 Y107.276 E1.10587
G1 X98.061 Y106.189 E1.1744
G1 X97.796 Y104.201 E1.29838
G1 X98.15 Y104.329 E1.32164
G1 X100.587 Y106.618 E1.52829
G1 X105.793 Y111.918 E1.98757
G1 X111.795 Y118.211 E2.52514
G1 X116.774 Y123.614 E2.97931
G1 X119.335 Y126.621 E3.22345
G1 X121.343 Y129.243 E3.42767
G1 X122.733 Y131.381 E3.58531
G1 X123.438 Y132.891 E3.68829
G1 X123.54 Y133.479 E3.7252
G1 X123.507 Y134.296 E3.77573
G1 X123.311 Y135.271 E3.83722
G1 X122.462 Y137.7 E3.99628
G1 X122.182 Y138.852 E4.06955
G1 X122.216 Y140.071 E4.14492
G1 X122.848 Y140.988 E4.21377
G1 X123.393 Y141.466 E4.25857
G1 X124.161 Y141.763 E4.30951
G1 X125.505 Y141.579 E4.39335
G1 X127.045 Y141.125 E4.49257
G1 X128.48 Y140.274 E4.59574
G1 X130.253 Y138.709 E4.74191
G1 X136.522 Y132.4 E5.29172
G1 X137.377 Y131.376 E5.37421
G1 X138.079 Y130.353 E5.4509
G1 X139.471 Y127.945 E5.62278
G1 X139.899 Y126.826 E5.69687
G1 X140.156 Y125.718 E5.76719
G1 X140.276 Y124.744 E5.82785
G1 X140.229 Y123.826 E5.88466
G1 X139.849 Y122.868 E5.9484
G1 X138.868 Y122.216 E6.02118
G1 X137.78 Y122.307 E6.08868
G1 X136.7 Y122.574 E6.15745
G1 X133.662 Y123.669 E6.35711
G1 X133.04 Y123.802 E6.3964
G1 X132.47 Y123.809 E6.43165
G1 X131.795 Y123.711 E6.47379
G1 X131.009 Y123.489 E6.52433
G1 X130.115 Y123.129 E6.58389
G1 X127.831 Y121.889 E6.74452
G1 X124.799 Y119.865 E6.96989
G1 X126.206 Y118.543 E7.0892
G1 X126.663 Y118.048 E7.13089
G1 X128.627 Y119.197 E7.27152
G1 X129.779 Y117.865 E7.38033
G1 X130.454 Y116.852 E7.45561
G1 X131.049 Y115.31 E7.5578
G1 X131.626 Y113.198 E7.69312
G1 X131.597 Y111.35 E7.80739
G1 X131.438 Y110.452 E7.86377
G1 X131.145 Y109.638 E7.91723
G1 X130.698 Y108.904 E7.97039
G1 X130.096 Y108.242 E8.02565
G1 X128.803 Y107.295 E8.12475
G1 X128.501 Y107.524 E8.14816
G1 X127.861 Y106.542 E8.22066
G1 X127.868 Y105.652 E8.27564
G1 X127.71 Y104.756 E8.33193
G1 X127.417 Y103.864 E8.38993
G1 X126.961 Y103.003 E8.45014
G1 X126.295 Y102.357 E8.50752
G1 X125.367 Y101.989 E8.5692
G1 X124.453 Y102.112 E8.6262
G1 X123.732 Y101.25 E8.6957
G1 X122.093 Y99.705 E8.83495
G1 X122.183 Y98.571 E8.90528
G1 X121.998 Y98.248 E8.92831
G1 X122.096 Y97.732 E8.96078
G1 X121.344 Y96.793 E9.03512
G1 X120.681 Y96.262 E9.08763
G1 X120.15 Y95.599 E9.14013
G1 X119.256 Y94.883 E9.21092
G1 X118.871 Y94.927 E9.23486
G1 X116.316 Y92.371 E9.45828
G1 X116.374 Y92.106 E9.47507
G1 X115.776 Y91.165 E9.544
G1 X115.481 Y91.027 E9.56412
G1 X115.254 Y90.574 E9.59544
G1 X113.849 Y90.094 E9.68723
G1 X113.08 Y90.712 E9.7482
G1 X111.268 Y88.899 E9.90666
G1 X113.648 Y86.651 E10.10907
G1 X114.164 Y85.951 E10.16279
G1 X114.229 Y84.865 E10.23003
G1 X112.606 Y83.08 E10.37921
G1 X111.694 Y82.27 E10.4546
G1 X111.015 Y81.828 E10.50466
G1 X110.582 Y81.148 E10.55451
G1 X109.767 Y80.23 E10.6304
G1 X107.897 Y78.545 E10.78601
G1 X107.759 Y78.573 E10.79474
G1 X107.326 Y77.892 E10.84459
G1 X106.51 Y76.974 E10.92055
G1 X104.624 Y75.273 E11.07755
G1 X103.354 Y75.57 E11.15815
G1 X102.085 Y76.695 E11.26301
G1 X101.986 Y77.135 E11.29092
G1 X101.933 Y77.223 E11.29727
G1 X100.726 Y78.37 E11.40019
G1 X95.911 Y73.525 E11.8224
G1 X94.131 Y71.773 E11.97682
G1 X93.273 Y71.073 E12.04527
G1 X88.952 Y68.526 E12.35529
G1 X87.915 Y68.108 E12.42442
G1 X86.904 Y67.846 E12.48896
G1 X85.892 Y67.742 E12.55186
G1 X84.889 Y67.804 E12.614
G1 X83.907 Y68.025 E12.6762
G1 X82.955 Y68.393 E12.73932
G1 X81.652 Y69.077 E12.83029
G1 X80.48 Y69.893 E12.91854
G1 X79.454 Y70.833 E13.00461
G1 X78.579 Y71.892 E13.08947
G1 X77.87 Y73.059 E13.1739
G1 X77.335 Y74.321 E13.25866
G1 X77.021 Y75.502 E13.33415
G1 X69.269 Y67.613 E14.01787
G1 X68.755 Y67 E14.06732
G1 X68.424 Y66.176 E14.12217
G1 X67.934 Y65.355 E14.18129
G1 X66.474 Y63.61 E14.32197
G1 X66.419 Y62.594 E14.38486
G1 X65.445 Y61.568 E14.4723
G1 X64.329 Y60.721 E14.55889
G1 X63.018 Y60.741 E14.63999
G1 X61.879 Y61.215 E14.71624
G1 X60.601 Y62.389 E14.8235
G1 X59.427 Y63.668 E14.93078
G1 X58.969 Y64.767 E15.00438
G1 X58.903 Y65.596 E15.05581
G1 X59.082 Y66.431 E15.10864
G1 X59.958 Y67.667 E15.20225
G1 X60.824 Y68.327 E15.26956
G1 X61.706 Y68.372 E15.32414
G1 X64.046 Y70.206 E15.50791
G1 X65.057 Y70.611 E15.57521
G1 X65.331 Y70.655 E15.59239
G1 X86.841 Y92.268 E17.47734
G1 X85.66 Y93.449 E17.58057
G1 X86.164 Y94.358 E17.64482
G1 X85.955 Y94.569 E17.66317
G1 X85.585 Y94.37 E17.68916
G1 X84.419 Y95.21 E17.77802
G1 X83.811 Y96.043 E17.84175
G1 X83.859 Y97.181 E17.9122
G1 X84.441 Y97.999 E17.97421
G1 X86.779 Y100.174 E18.17163
G1 X87.039 Y99.875 E18.19614
M107
G1 X86.742 Y99.462 F7800
M107
G1 F1800
G1 X88.274 Y97.703 E18.34037
G1 X87.928 Y97.066 E18.38515
G1 X88.608 Y96.349 E18.44624
G1 X89.583 Y96.968 E18.5176
G1 X90.202 Y97.944 E18.58901
G1 X89.489 Y98.622 E18.64989
G1 X88.955 Y98.326 E18.68759
G1 X88.085 Y98.813 E18.74925
G1 X87.559 Y99.421 E18.79895
G1 X87.591 Y100.265 E18.85111
G1 X88.066 Y100.922 E18.90126
G1 X90 Y102.72 E19.06447
G1 X90.582 Y102.048 E19.11939
G1 X90.631 Y103.305 E19.19713
G1 X91.105 Y103.961 E19.24719
G1 X93.036 Y105.756 E19.41016
G1 X94.532 Y104.047 E19.55054
G1 X94.305 Y103.509 E19.58667
G1 X95.052 Y102.762 E19.65199
G1 X95.417 Y102.938 E19.67706
G1 X95.335 Y103.967 E19.74086
G1 X95.571 Y105.501 E19.83678
G1 X95.672 Y105.916 E19.86318
G1 X95.677 Y107.014 E19.93105
G1 X96.621 Y107.38 E19.99366
G1 X97.401 Y106.952 E20.04868
G1 X97.559 Y106.172 E20.09786
G1 X97.307 Y104.282 E20.21571
G1 X97.326 Y104.005 E20.23289
G1 X97.381 Y103.841 E20.2436
G1 X97.444 Y103.756 E20.25013
G1 X97.517 Y103.705 E20.25566
G1 X97.634 Y103.671 E20.26321
G1 X97.786 Y103.671 E20.27259
G1 X98.415 Y103.897 E20.31391
G1 X100.934 Y106.263 E20.52753
G1 X106.149 Y111.573 E20.98764
G1 X112.157 Y117.872 E21.5257
G1 X117.145 Y123.285 E21.98073
G1 X119.72 Y126.309 E22.22627
G1 X121.749 Y128.957 E22.43247
G1 X123.168 Y131.14 E22.59342
G1 X123.915 Y132.741 E22.70264
G1 X124.037 Y133.447 E22.7469
G1 X124.001 Y134.355 E22.8031
G1 X123.791 Y135.403 E22.86914
G1 X122.938 Y137.841 E23.02882
G1 X122.679 Y138.904 E23.09648
G1 X122.708 Y139.91 E23.15869
G1 X123.221 Y140.656 E23.21467
G1 X123.653 Y141.035 E23.2502
G1 X124.221 Y141.255 E23.28781
G1 X125.401 Y141.093 E23.36144
G1 X126.845 Y140.667 E23.45453
G1 X128.187 Y139.872 E23.55097
G1 X129.912 Y138.348 E23.69325
G1 X136.155 Y132.066 E24.24074
G1 X136.982 Y131.076 E24.32046
G1 X137.66 Y130.088 E24.39451
G1 X139.022 Y127.732 E24.56277
G1 X139.423 Y126.681 E24.63231
G1 X139.667 Y125.631 E24.69893
G1 X139.779 Y124.726 E24.7553
G1 X139.739 Y123.933 E24.80439
G1 X139.446 Y123.195 E24.85348
G1 X138.738 Y122.725 E24.90602
G1 X137.861 Y122.798 E24.96042
G1 X136.844 Y123.049 E25.02515
G1 X133.798 Y124.147 E25.2253
G1 X133.096 Y124.297 E25.26971
G1 X132.437 Y124.305 E25.31042
G1 X131.692 Y124.197 E25.35698
G1 X130.848 Y123.958 E25.41117
G1 X129.903 Y123.578 E25.47414
G1 X127.575 Y122.314 E25.63792
G1 X124.645 Y120.358 E25.8557
G1 X123.969 Y119.848 E25.90801
G1 X124.628 Y119.346 E25.95923
G1 X125.854 Y118.194 E26.06317
G1 X127.171 Y116.768 E26.18317
G1 X127.607 Y116.081 E26.23351
G1 X127.926 Y116.237 E26.25546
G1 X127.338 Y117.869 E26.36268
G1 X128.522 Y118.561 E26.44743
G1 X129.383 Y117.565 E26.52886
G1 X130.011 Y116.623 E26.59882
G1 X130.577 Y115.155 E26.69609
G1 X131.13 Y113.136 E26.8255
G1 X131.102 Y111.397 E26.93296
G1 X130.958 Y110.58 E26.98428
G1 X130.696 Y109.853 E27.03201
G1 X130.299 Y109.202 E27.07915
G1 X129.763 Y108.613 E27.1284
G1 X128.808 Y107.913 E27.20158
G1 X128.376 Y108.24 E27.23506
G1 X127.364 Y106.687 E27.34968
G1 X127.372 Y105.694 E27.4111
G1 X127.228 Y104.877 E27.46238
G1 X126.959 Y104.059 E27.51559
G1 X126.559 Y103.305 E27.56836
G1 X126.02 Y102.781 E27.61479
G1 X125.305 Y102.498 E27.66238
G1 X124.248 Y102.64 E27.72827
G1 X123.371 Y101.59 E27.81286
G1 X121.58 Y99.903 E27.96498
G1 X121.677 Y98.684 E28.04052
G1 X121.477 Y98.335 E28.06542
G1 X121.566 Y97.863 E28.0951
G1 X120.991 Y97.146 E28.15195
G1 X120.328 Y96.615 E28.20445
G1 X119.797 Y95.952 E28.25696
G1 X119.107 Y95.399 E28.31163
G1 X118.69 Y95.446 E28.3376
G1 X115.773 Y92.529 E28.59257
G1 X115.846 Y92.199 E28.61348
G1 X115.435 Y91.553 E28.6608
G1 X115.115 Y91.404 E28.68264
G1 X114.902 Y90.977 E28.71211
G1 X113.947 Y90.651 E28.77449
G1 X113.044 Y91.376 E28.84607
G1 X110.557 Y88.889 E29.06354
G1 X113.276 Y86.321 E29.29473
G1 X113.678 Y85.775 E29.33664
G1 X113.722 Y85.044 E29.38191
G1 X112.257 Y83.433 E29.51653
G1 X111.393 Y82.665 E29.58799
G1 X110.655 Y82.185 E29.6424
G1 X110.185 Y81.448 E29.69645
G1 X109.414 Y80.58 E29.7682
G1 X107.751 Y79.08 E29.90663
G1 X107.523 Y79.127 E29.921
G1 X106.929 Y78.191 E29.9895
G1 X106.158 Y77.323 E30.06128
G1 X104.485 Y75.814 E30.20057
G1 X103.589 Y76.024 E30.2574
G1 X102.533 Y76.959 E30.34461
G1 X102.452 Y77.323 E30.36767
G1 X102.322 Y77.537 E30.38314
G1 X100.716 Y79.063 E30.52007
G1 X95.562 Y73.876 E30.97208
G1 X93.8 Y72.142 E31.12489
G1 X92.989 Y71.481 E31.18959
G1 X88.733 Y68.972 E31.495
G1 X87.76 Y68.579 E31.55984
G1 X86.816 Y68.335 E31.62007
G1 X85.882 Y68.239 E31.67812
G1 X84.959 Y68.297 E31.73529
G1 X84.052 Y68.501 E31.7928
G1 X83.16 Y68.845 E31.85189
G1 X81.91 Y69.502 E31.93918
G1 X80.79 Y70.281 E32.02348
G1 X79.814 Y71.176 E32.10536
G1 X78.984 Y72.18 E32.18588
G1 X78.312 Y73.286 E32.26588
G1 X77.805 Y74.483 E32.34624
G1 X77.462 Y75.77 E32.42859
G1 X77.389 Y76.583 E32.47907
G1 X68.902 Y67.946 E33.22762
G1 X68.324 Y67.258 E33.28316
G1 X67.979 Y66.397 E33.3405
G1 X67.528 Y65.643 E33.39479
G1 X65.988 Y63.801 E33.54323
G1 X65.934 Y62.803 E33.60504
G1 X65.113 Y61.939 E33.67871
G1 X64.166 Y61.219 E33.75224
G1 X63.12 Y61.235 E33.81689
G1 X62.15 Y61.639 E33.88186
G1 X60.951 Y62.74 E33.98243
G1 X59.851 Y63.938 E34.08302
G1 X59.457 Y64.885 E34.14638
G1 X59.403 Y65.563 E34.18844
G1 X59.546 Y66.228 E34.23049
G1 X60.318 Y67.319 E34.31312
G1 X61.003 Y67.84 E34.36629
G1 X61.841 Y67.883 E34.41818
G1 X61.934 Y67.921 E34.42436
G1 X64.296 Y69.772 E34.6099
G1 X65.19 Y70.131 E34.6694
G1 X65.569 Y70.191 E34.69314
G1 X87.541 Y92.269 E36.6186
G1 X86.275 Y93.535 E36.72932
G1 X86.888 Y94.643 E36.80759
G1 X86.219 Y95.274 E36.86447
G1 X85.623 Y94.953 E36.90631
G1 X84.773 Y95.566 E36.97111
G1 X84.314 Y96.195 E37.01926
G1 X84.348 Y97.014 E37.0699
G1 X84.815 Y97.67 E37.11972
G1 X86.698 Y99.422 E37.27865
M107
G1 X86.704 Y98.751 F7800
;TYPE:External perimeter
M107
G1 F1800
G1 X87.674 Y97.637 E37.36993
G1 X87.32 Y96.986 E37.41572
G1 X88.529 Y95.712 E37.52427
G1 X89.656 Y96.428 E37.60676
G1 X90.952 Y95.09 E37.72191
G1 X91.461 Y95.599 E37.76645
G1 X90.123 Y96.895 E37.88158
G1 X90.839 Y98.022 E37.96409
G1 X89.566 Y99.232 E38.07267
G1 X88.956 Y98.893 E38.11581
G1 X88.403 Y99.203 E38.15499
G1 X88.062 Y99.597 E38.18723
G1 X88.081 Y100.096 E38.21808
G1 X88.439 Y100.593 E38.25593
G1 X89.961 Y102.007 E38.38437
G1 X90.898 Y100.924 E38.47289
G1 X90.662 Y100.259 E38.51652
G1 X91.178 Y99.612 E38.56772
G1 X91.771 Y99.038 E38.6187
G1 X92.344 Y99.361 E38.65935
G1 X92.839 Y99.504 E38.69121
G1 X93.269 Y99.302 E38.72061
G1 X93.349 Y99.231 E38.72719
G1 X93.389 Y99.832 E38.76444
M107
;TYPE:Thin wall
;WIDTH:0.040284
M107
G1 X93.491 Y99.825
M107
;WIDTH:0.362559
M107
G1 X93.489 Y99.685 E38.76976
M107
;WIDTH:0.689118
M107
G1 X93.486 Y99.356 E38.7957
G1 X93.571 Y99.272 E38.80506
M107
;WIDTH:0.725421
M107
G1 X93.656 Y99.189 E38.81498
M107
;WIDTH:0.761723
M107
G1 X93.741 Y99.105 E38.82542
M107
;WIDTH:0.798025
M107
G1 X94.229 Y98.653 E38.88689
M107
;WIDTH:0.768547
M107
G1 X94.365 Y98.592 E38.90005
M107
;WIDTH:0.83643
M107
G1 X94.554 Y98.508 E38.92016
M107
;WIDTH:0.602006
M107
G1 X94.66 Y98.461 E38.92799
M107
;WIDTH:0.022421
M107
G1 X94.682 Y98.451 E38.92824
G1 X94.66 Y98.461 E38.92848
M107
;WIDTH:0.06689
M107
G1 X94.554 Y98.508 E38.92935
M107
;WIDTH:0.092937
M107
G1 X94.365 Y98.592 E38.93158
M107
;WIDTH:0.085394
M107
G1 X94.229 Y98.653 E38.93305
M107
;WIDTH:0.08867
M107
G1 X93.741 Y99.105 E38.93988
M107
;WIDTH:0.084636
M107
G1 X93.656 Y99.189 E38.94104
M107
;WIDTH:0.080602
M107
